X:67
T: Zu Arel op der Knippchen, S. 34f
N: L0027V
O: Luxemburg
S: Die Luxemburger Volkslieder lterer Zeit, Luxemburg 1904 posth.]
N: 2 Weisen
N: 1. Weise mit Sign. 0026 vorausgehend
N: 2. Weise
R: ??/Trinklied]
M: 2/4
L: 1/16
K: A
E2 | E3AA2A2 | A2G2A2
B2 | =c3B_B2=B2 | B4z2
B2 | =c3cB2A2 | d4=c2
B2 | =c3cB3B | A4z2

@@@ Tune index: 8121
